packages/dnb-eufemia/assets/icons/digipass.svg

<svg width="16" height="16" viewBox="0 0 16 16" fill="none" xmlns="http://www.w3.org/2000/svg">
<path d="M10.632 7.60674C10.632 8.02096 10.9678 8.35674 11.382 8.35674C11.7962 8.35674 12.132 8.02096 12.132 7.60674H10.632ZM1.94382 15.9073C2.35803 15.9073 2.69382 15.5715 2.69382 15.1573C2.69382 14.7431 2.35803 14.4073 1.94382 14.4073V15.9073ZM3.85518 1.96753L4.38551 2.49787V2.49786L3.85518 1.96753ZM7.44944 10.303L7.24105 9.58253L7.44944 10.303ZM7.44944 14.6633L7.24105 15.3838L7.44944 14.6633ZM10 11.7331C9.58579 11.7331 9.25 12.0689 9.25 12.4831C9.25 12.8974 9.58579 13.2331 10 13.2331V11.7331ZM12 13.2331C12.4142 13.2331 12.75 12.8974 12.75 12.4831C12.75 12.0689 12.4142 11.7331 12 11.7331V13.2331ZM10.4382 7.41292C10.5452 7.41292 10.632 7.4997 10.632 7.60674H12.132C12.132 6.67127 11.3737 5.91292 10.4382 5.91292V7.41292ZM1.94382 14.4073C1.83678 14.4073 1.75 14.3205 1.75 14.2135H0.25C0.25 15.149 1.00835 15.9073 1.94382 15.9073V14.4073ZM1.75 14.2135V7.60674H0.25V14.2135H1.75ZM1.75 7.60674C1.75 7.4997 1.83678 7.41292 1.94382 7.41292V5.91292C1.00835 5.91292 0.25 6.67127 0.25 7.60674H1.75ZM3.63764 4.30337C3.63764 3.62617 3.90666 2.97671 4.38551 2.49787L3.32485 1.4372C2.56469 2.19736 2.13764 3.22835 2.13764 4.30337H3.63764ZM4.38551 2.49786C4.86436 2.01902 5.51382 1.75 6.19101 1.75V0.25C5.11599 0.25 4.085 0.67705 3.32485 1.4372L4.38551 2.49786ZM6.19101 1.75C6.86821 1.75 7.51767 2.01902 7.99652 2.49786L9.05718 1.4372C8.29702 0.67705 7.26603 0.25 6.19101 0.25V1.75ZM7.99652 2.49786C8.47537 2.97672 8.74438 3.62618 8.74438 4.30337H10.2444C10.2444 3.22835 9.81733 2.19736 9.05718 1.4372L7.99652 2.49786ZM9.49438 7.41292H10.4382V5.91292H9.49438V7.41292ZM8.74438 4.30337V6.66292H10.2444V4.30337H8.74438ZM1.94382 7.41292H2.88764V5.91292H1.94382V7.41292ZM2.88764 7.41292H9.49438V5.91292H2.88764V7.41292ZM3.63764 6.66292V4.30337H2.13764V6.66292H3.63764ZM14.25 12.4831C14.25 12.741 14.0214 13.1764 13.1903 13.592C12.4039 13.9852 11.2651 14.25 9.96629 14.25V15.75C11.4475 15.75 12.8256 15.4514 13.8611 14.9337C14.8517 14.4383 15.75 13.6153 15.75 12.4831H14.25ZM9.96629 10.7163C11.2651 10.7163 12.4039 10.9811 13.1903 11.3743C14.0214 11.7899 14.25 12.2253 14.25 12.4831H15.75C15.75 11.351 14.8517 10.528 13.8611 10.0326C12.8256 9.51489 11.4475 9.21629 9.96629 9.21629V10.7163ZM5.68258 12.4831C5.68258 12.3104 5.77402 12.0655 6.11194 11.7789C6.4492 11.4928 6.97336 11.2214 7.65782 11.0235L7.24105 9.58253C6.42094 9.81974 5.68667 10.1727 5.14165 10.635C4.59728 11.0967 4.18258 11.7243 4.18258 12.4831H5.68258ZM7.65782 11.0235C8.32518 10.8305 9.11419 10.7163 9.96629 10.7163V9.21629C8.98468 9.21629 8.05448 9.34726 7.24105 9.58253L7.65782 11.0235ZM9.96629 14.25C9.11419 14.25 8.32518 14.1358 7.65782 13.9428L7.24105 15.3838C8.05448 15.619 8.98468 15.75 9.96629 15.75V14.25ZM7.65782 13.9428C6.97336 13.7448 6.4492 13.4735 6.11194 13.1874C5.77402 12.9008 5.68258 12.6559 5.68258 12.4831H4.18258C4.18258 13.242 4.59728 13.8696 5.14165 14.3313C5.68667 14.7936 6.42094 15.1466 7.24105 15.3838L7.65782 13.9428ZM6.76343 10.6061C7.02412 11.1961 7.40821 12.8404 6.75902 14.3703L8.13986 14.9562C9.00078 12.9273 8.50397 10.8339 8.13545 9.99987L6.76343 10.6061ZM10 13.2331H12V11.7331H10V13.2331Z" fill="black"/>
</svg>

<svg width="16" height="16" viewBox="0 0 16 16" fill="none" xmlns="http://www.w3.org/2000/svg"><path d="M10.632 7.607a.75.75 0 0 0 1.5 0h-1.5Zm-8.688 8.3a.75.75 0 0 0 0-1.5v1.5Zm1.911-13.94.53.53-.53-.53Zm3.594 8.336-.208-.72.208.72Zm0 4.36-.208.72.208-.72ZM10 11.733a.75.75 0 0 0 0 1.5v-1.5Zm2 1.5a.75.75 0 1 0 0-1.5v1.5Zm-1.562-5.82c.107 0 .194.087.194.194h1.5c0-.936-.758-1.694-1.694-1.694v1.5Zm-8.494 6.994a.194.194 0 0 1-.194-.194H.25c0 .936.758 1.694 1.694 1.694v-1.5Zm-.194-.194V7.607H.25v6.606h1.5Zm0-6.606c0-.107.087-.194.194-.194v-1.5C1.008 5.913.25 6.67.25 7.607h1.5Zm1.888-3.304c0-.677.269-1.326.748-1.805l-1.061-1.06a4.053 4.053 0 0 0-1.187 2.865h1.5Zm.748-1.805A2.553 2.553 0 0 1 6.19 1.75V.25a4.053 4.053 0 0 0-2.866 1.187l1.06 1.06ZM6.19 1.75c.677 0 1.327.269 1.806.748l1.06-1.06A4.053 4.053 0 0 0 6.191.25v1.5Zm1.806.748c.478.479.747 1.128.747 1.805h1.5a4.053 4.053 0 0 0-1.187-2.866l-1.06 1.06Zm1.497 4.915h.944v-1.5h-.944v1.5Zm-.75-3.11v2.36h1.5v-2.36h-1.5Zm-6.8 3.11h.944v-1.5h-.944v1.5Zm.944 0h6.606v-1.5H2.888v1.5Zm.75-.75v-2.36h-1.5v2.36h1.5Zm10.612 5.82c0 .258-.229.693-1.06 1.109-.786.393-1.925.658-3.224.658v1.5c1.482 0 2.86-.299 3.895-.816.99-.496 1.889-1.319 1.889-2.45h-1.5Zm-4.284-1.767c1.3 0 2.438.265 3.224.658.831.416 1.06.851 1.06 1.11h1.5c0-1.133-.898-1.956-1.889-2.451-1.035-.518-2.414-.817-3.895-.817v1.5Zm-4.283 1.767c0-.173.091-.418.429-.704.337-.286.861-.558 1.546-.755L7.24 9.582c-.82.237-1.554.59-2.1 1.052-.544.462-.958 1.09-.958 1.848h1.5Zm1.975-1.46a8.4 8.4 0 0 1 2.308-.307v-1.5c-.981 0-1.912.131-2.725.367l.417 1.44Zm2.308 3.227a8.4 8.4 0 0 1-2.308-.307l-.417 1.44a9.899 9.899 0 0 0 2.725.367v-1.5Zm-2.308-.307c-.685-.198-1.209-.47-1.546-.756-.338-.286-.43-.531-.43-.704h-1.5c0 .759.415 1.387.96 1.848.545.463 1.279.816 2.099 1.053l.417-1.441Zm-.895-3.337c.261.59.645 2.234-.004 3.764l1.38.586C9 12.927 8.503 10.834 8.134 10l-1.372.606ZM10 13.233h2v-1.5h-2v1.5Z" fill="#000"/></svg>
